X: 16576
T: Hand Me Down The Tackle
R: reel
M: 4/4
K: Dmajor
|:dD~D2 FDFA|dfaf gfec|dD~D2 FDFA|GFEF GABc|
dD~D2 FDFA|dfaf gfec|d2 ec dBAF|GFEF GABc:|
d2 fd Adfd|~d2 fd edBc|d2 fd Adfd|BdAG FDDA|
[1 d2 fd Adfd|cdef ~g2 fg|afge fede|BdAG FDD2:|
[2 ~a3b agfa|~g2 ef gbag|faeg fdAF|GFEF GABc||

